packages/core/src/svgs/tokens/branded/VSYS.svg

<svg width="24" height="24" viewBox="0 0 24 24" fill="none" xmlns="http://www.w3.org/2000/svg">
<path d="M2.1651 3.66638H7.89285C7.92617 3.66638 7.95118 3.66638 7.97617 3.6925C8.00408 3.70537 8.02735 3.72652 8.04284 3.75305L15.0134 15.3258C15.0335 15.3552 15.0441 15.3901 15.0441 15.4258C15.0441 15.4614 15.0335 15.4963 15.0134 15.5258L12.1617 20.2463C12.1462 20.2727 12.1242 20.2948 12.0978 20.3102C12.0717 20.3255 12.042 20.3336 12.0117 20.3336C11.9815 20.3336 11.9517 20.3255 11.9256 20.3102C11.8992 20.2948 11.8771 20.2727 11.8617 20.2463L2.02342 3.94416C2.00806 3.91636 2 3.88511 2 3.85333C2 3.82156 2.00806 3.79031 2.02342 3.7625C2.03662 3.73475 2.05671 3.71084 2.08176 3.69306C2.10679 3.67725 2.13551 3.66769 2.1651 3.66638ZM14.1712 3.66638H21.8333C21.8666 3.66638 21.8916 3.67527 21.9166 3.6925C21.9419 3.71002 21.9621 3.734 21.975 3.76194C21.9905 3.78749 21.9995 3.8175 22 3.84806C22 3.89139 22 3.9175 21.975 3.94361L18.1483 10.3019C18.1328 10.3284 18.1105 10.3504 18.0839 10.3658C18.0579 10.3811 18.028 10.3893 17.9978 10.3893C17.9675 10.3893 17.9378 10.3811 17.9116 10.3658C17.8853 10.3504 17.8633 10.3284 17.8479 10.3019L14.0128 3.94361C13.9976 3.91614 13.9896 3.88529 13.9894 3.8539C13.9893 3.82252 13.9971 3.7916 14.012 3.76399C14.027 3.73639 14.0486 3.71298 14.075 3.69594C14.1013 3.67888 14.1315 3.66872 14.1628 3.66638H14.1712Z" fill="#FF8836"/>
</svg>

<svg xmlns="http://www.w3.org/2000/svg" width="24" height="24" fill="none" viewBox="0 0 24 24">
    <path fill="#FF8836" d="M2.165 3.666h5.728c.033 0 .058 0 .083.026a.15.15 0 0 1 .067.061l6.97 11.573a.18.18 0 0 1 0 .2l-2.851 4.72a.2.2 0 0 1-.064.064.17.17 0 0 1-.172 0 .2.2 0 0 1-.064-.064L2.023 3.944a.19.19 0 0 1 0-.181.2.2 0 0 1 .059-.07.2.2 0 0 1 .083-.027m12.006 0h7.662c.034 0 .059.01.084.026a.2.2 0 0 1 .058.07.2.2 0 0 1 .025.086c0 .043 0 .07-.025.096l-3.827 6.358a.18.18 0 0 1-.15.087.18.18 0 0 1-.15-.087l-3.835-6.358a.188.188 0 0 1 .15-.278z"/>
</svg>
